X:11
T:Stone's Rag
C:
M:4/4
L:1/8
Q:1/8=460
K:C
|cdeg zage|cdeg zage|FGAc zdcA|FGAc zdcA|
BdBG z^FGA|BdBG z^FG2|cdeg zage|g6e2|
cdeg zage|cdeg zage|FGAc zdcA|FGAc zdcA|
BdBG z^FGA|BdBG z^FG2|gega zge2|c6g2|
agea zge2|agea zge2|dcAd zcA2|dcAd zcA2|
BdBG z^FGA|BdBG z^FG2|cdeg zage|g4 ^g4|
agea zge2|agea zge2|dcAd zcA2|dcAd zcA2|
c'4 a4|gage zdcA|GAce zcd2|c8|
